!!!COM: Robert Schumann
!!!CNT: Deutscher
!!!TXO: Deutsche 
!!!OTL: Das ist ein Flo2ten und Geigen
!!!OPR: Dichterliebe
!!!OPS: Opus 48
!!!ONM: No. 9
!!!LYR: Heine
!!!ENC: Brian Bice
!!!YOR: Sa2mtliche Lieder, vol. 1, C.F. Peters
!!!ODT: 1840/
!!NB: Vocal melody and text only encoded.
**kern	**silbe
*clefG2	*
*k[b-]	*
*M3/8	*
=4	=4
8r	.
8r	.
{8a	{Das
=5	=5
4a	ist
8a	ein
=6	=6
8.dd	Flo2-
16dd	-ten
8dd	und
=7	=7
4.ff	Gei-
=8	=8
4ee}	-gen,}
{8a	{Trom-
=9	=9
4dd	-pe-
8dd	-ten
=10	=10
8.dd	schmet-
16dd	-tern
8dd	dar-
=11	=11
[4.cc	-ein,
=12	=12
8cc]}	|}
8r	.
{8cc	{Trom-
=13	=13
4b-	-pe-
8b-	-ten
=14	=14
8.b-	schmet-
16b-	-tern
8b-	dar-
=15	=15
4.c}	-ein;}
=20	=20
8r	.
8r	.
{8d	{da
=21	=21
8.d	tanzt
16d	wohl
8d	den
=22	=22
4g	Hoch-
8g	-zeit-
=23	=23
4.b-	-rei-
=24	=24
4a}	-gen}
{8a	{die
=25	=25
8.b-	Herz-
16b-	-al-
8b-	-ler-
=26	=26
4cc	-lieb-
8cc	-ste
=27	=27
4.a}	mein,}
=28	=28
8r	.
8r	.
{8a	{die
=29	=29
8.g	Herz-
16g	-al-
8g	-ler-
=30	=30
4g	-lieb-
8g	-ste
=31	=31
4.f}	mein.}
=38	=38
8r	.
8r	.
{8a	{Das
=39	=39
4a	ist
8a	ein
=40	=40
8.dd	Klin-
16dd	-gen
8dd	und
=41	=41
4.ff	Dro2h-
=42	=42
4ee}	-nen,}
{8a	{das
=43	=43
4dd	ist
8dd	ein
=44	=44
8.dd	Klin-
16dd	-gen
8dd	und
=45	=45
4.cc	Dro2h-
=46	=46
4cc}	-nen,}
{8cc	{ein
=47	=47
8.b-	Pau-
16b-	-ken
8b-	und
=48	=48
4b-	ein
8b-	Schal-
=49	=49
4.c}	-mei'n;}
=54	=54
8r	.
8r	.
{8d	{da-
=55	=55
4d	-zwi-
8d	-schen
=56	=56
8.g	schluch-
16g	-zen
8g	und
=57	=57
4.b-	sto2h-
=58	=58
4a}	-nen,}
{8a	{da-
=59	=59
4b-	-zwi-
8b-	-schen
=60	=60
8.b-	schluch-
16b-	-zen
8b-	und
=61	=61
4.a	sto2h-
=62	=62
8a}	-nen}
8r	.
{8a	{die
=63	=63
8.g	lieb-
16g	-li-
8g	-chen
=64	=64
4g	En-
8g	-ge-
=65	=65
4.f}	-lein.}
*-	*-
